X: 41587
T: Up And About In The Morning
R: jig
M: 6/8
K: Dmajor
|:ABA DED|ABG A2 d|cAG EFG|FAD EFG|
ABA DED|ABG A2 d|cAG EFG|FDD D3:|
|:d2e f3|{ef}g2 e dcA|ABA EFG|FAD EFG|
d2e f3|g2e dcA|ABA EFG|FDD D3:|
|:d2d dcA|d2d dcA|ABA AGE|ABG ABc|
d2e f2a|g2e dcA|ABA EFG|FDD D3:|

